assets/images/englishflag.svg

<svg width="24" height="24" viewBox="0 0 24 24" fill="none" xmlns="http://www.w3.org/2000/svg">
<g id="Mask group">
<mask id="mask0_610_1778" style="mask-type:luminance" maskUnits="userSpaceOnUse" x="0" y="0" width="24" height="24">
<g id="Group">
<path id="Vector" d="M12 24C18.6274 24 24 18.6274 24 12C24 5.37258 18.6274 0 12 0C5.37258 0 0 5.37258 0 12C0 18.6274 5.37258 24 12 24Z" fill="white"/>
</g>
</mask>
<g mask="url(#mask0_610_1778)">
<g id="Group_2">
<path id="Vector_2" d="M0 0L0.375 1.03125L0 2.10938V3.1875L1.5 5.71875L0 8.25V9.75L1.5 12L0 14.25V15.75L1.5 18.2812L0 20.8125V24L1.03125 23.625L2.10938 24H3.1875L5.71875 22.5L8.25 24H9.75L12 22.5L14.25 24H15.75L18.2812 22.5L20.8125 24H24L23.625 22.9688L24 21.8906V20.8125L22.5 18.2812L24 15.75V14.25L22.5 12L24 9.75V8.25L22.5 5.71875L24 3.1875V0L22.9688 0.375L21.8906 0H20.8125L18.2812 1.5L15.75 0H14.25L12 1.5L9.75 0H8.25L5.71875 1.5L3.1875 0H0Z" fill="#EEEEEE"/>
<path id="Vector_3" d="M15.75 0V5.0625L20.8125 0H15.75ZM24 3.1875L18.9375 8.25H24V3.1875ZM0 8.25H5.0625L0 3.1875V8.25ZM3.1875 0L8.25 5.0625V0H3.1875ZM8.25 24V18.9375L3.1875 24H8.25ZM0 20.8125L5.0625 15.75H0V20.8125ZM24 15.75H18.9375L24 20.8125V15.75ZM20.8125 24L15.75 18.9375V24H20.8125Z" fill="#0052B4"/>
<path id="Vector_4" d="M0 0V2.10938L6.14062 8.25H8.25L0 0ZM9.75 0V9.75H0V14.25H9.75V24H14.25V14.25H24V9.75H14.25V0H9.75ZM21.8906 0L15.75 6.14062V8.25L24 0H21.8906ZM8.25 15.75L0 24H2.10938L8.25 17.8594V15.75ZM15.75 15.75L24 24V21.8906L17.8594 15.75H15.75Z" fill="#D80027"/>
</g>
</g>
</g>
</svg>

<svg width="24" height="24" fill="none" xmlns="http://www.w3.org/2000/svg"><mask id="a" style="mask-type:luminance" maskUnits="userSpaceOnUse" x="0" y="0" width="24" height="24"><path d="M12 24c6.627 0 12-5.373 12-12S18.627 0 12 0 0 5.373 0 12s5.373 12 12 12Z" fill="#fff"/></mask><g mask="url(#a)"><path d="m0 0 .375 1.031L0 2.11v1.079l1.5 2.53L0 8.25v1.5L1.5 12 0 14.25v1.5l1.5 2.531L0 20.813V24l1.031-.375L2.11 24h1.079l2.53-1.5L8.25 24h1.5L12 22.5l2.25 1.5h1.5l2.531-1.5 2.532 1.5H24l-.375-1.031L24 21.89v-1.078l-1.5-2.532L24 15.75v-1.5L22.5 12 24 9.75v-1.5l-1.5-2.531L24 3.187V0l-1.031.375L21.89 0h-1.078L18.28 1.5 15.75 0h-1.5L12 1.5 9.75 0h-1.5L5.719 1.5 3.187 0H0Z" fill="#EEE"/><path d="M15.75 0v5.063L20.813 0H15.75ZM24 3.188 18.937 8.25H24V3.187ZM0 8.25h5.063L0 3.187V8.25ZM3.188 0 8.25 5.063V0H3.187ZM8.25 24v-5.063L3.187 24H8.25ZM0 20.812l5.063-5.062H0v5.063Zm24-5.062h-5.063L24 20.813V15.75ZM20.812 24l-5.062-5.063V24h5.063Z" fill="#0052B4"/><path d="M0 0v2.11l6.14 6.14h2.11L0 0Zm9.75 0v9.75H0v4.5h9.75V24h4.5v-9.75H24v-4.5h-9.75V0h-4.5Zm12.14 0-6.14 6.14v2.11L24 0h-2.11ZM8.25 15.75 0 24h2.11l6.14-6.14v-2.11Zm7.5 0L24 24v-2.11l-6.14-6.14h-2.11Z" fill="#D80027"/></g></svg>
